src/main/resources/icons/RubyIcons/icons/rake/rakeTaskDefNode.svg

<svg xmlns="http://www.w3.org/2000/svg" width="16" height="16" viewBox="0 0 16 16">
  <g fill="none" fill-rule="evenodd">
    <path fill="#F98B9E" fill-opacity=".6" d="M7,14.9291115 C3.607701,14.4438834 1,11.5264786 1,8 C1,4.134 4.134,1 8,1 C11.5401068,1 14.4664232,3.62789512 14.934628,7.03936416 C14.7936276,7.01357718 14.6484417,7 14.5,7 L12.5,7 C11.121,7 10,8.121 10,9.5 C10,10.093 10.229,10.601 10.566,11 L9,11 C7.897,11 7,11.898 7,13 L7,14.9291115 Z"/>
    <path fill="#40B6E0" d="M12.5,10 C12.229,10 12,9.771 12,9.5 C12,9.229 12.229,9 12.5,9 L14.5,9 C14.771,9 15,9.229 15,9.5 C15,9.771 14.771,10 14.5,10 L12.5,10 Z M14.5,11 C15.325,11 16,10.325 16,9.5 C16,8.675 15.325,8 14.5,8 L12.5,8 C11.675,8 11,8.675 11,9.5 C11,10.169 11.577,10.732 12.186,10.924 L11.063,12 L9,12 C8.45,12 8,12.45 8,13 L8,14 L8,16 L9,16 L9,14 L10,14 L10,16 L11,16 L11,14 L12,14 L12,16 L13,16 L13,14 L14,14 L14,16 L15,16 L15,14 L15,13 C15,12.45 14.55,12 14,12 L12.188,12 L13.281,11 L14.5,11 Z"/>
    <path fill="#231F20" fill-opacity=".7" d="M10.9424013,7.54551341 C10.8465558,7.27289381 10.6027291,7 9.98162842,7 C8.95911952,7 9,7.686 9,8 L9,11 C8.98834454,11 8.97671209,11.0001003 8.96510346,11.0003 L8,11.0003 L8,8 C7.999,7.537 7.95,7 7,7 C6.05,7 6.05,7.7657 6,8 C5.96666667,8.1562 5.96666667,9.1563 6,11.0003 L5,11.0003 L5,6.0003 L6,6.0003 L6,6.299231 C6.26527507,6.09994367 6.63194173,6.0003 7.1,6.0003 C7.94411621,6.0003 8.28363037,6.19411621 8.5986,6.6 C8.6576,6.502 9.11224365,6.0003 9.98162842,6.0003 C11.0505581,6.0003 11.57727,6.52298648 11.8163605,7.09491892 C11.4938593,7.18664927 11.1977713,7.34161573 10.9424013,7.54551341 Z"/>
  </g>
</svg>

<svg xmlns="http://www.w3.org/2000/svg" width="16" height="16" viewBox="0 0 16 16"><rect id="frame" width="16" height="16" fill="none"/><g fill="none" fill-rule="evenodd"><path fill="#F98B9E" fill-opacity=".6" d="M7 14.93A7.002 7.002 0 0 1 8 1a7.001 7.001 0 0 1 6.935 6.04A2.414 2.414 0 0 0 14.5 7h-2A2.502 2.502 0 0 0 10 9.5c0 .593.229 1.101.566 1.5H9c-1.103 0-2 .898-2 2v1.93z"/><path fill="#40B6E0" d="M12.5 10a.507.507 0 0 1-.5-.5c0-.271.229-.5.5-.5h2c.271 0 .5.229.5.5s-.229.5-.5.5h-2zm2 1c.825 0 1.5-.675 1.5-1.5S15.325 8 14.5 8h-2c-.825 0-1.5.675-1.5 1.5 0 .669.577 1.232 1.186 1.424L11.063 12H9c-.55 0-1 .45-1 1v3h1v-2h1v2h1v-2h1v2h1v-2h1v2h1v-3c0-.55-.45-1-1-1h-1.812l1.093-1H14.5z"/><path fill="#231F20" fill-opacity=".7" d="M10.942 7.546c-.095-.273-.34-.546-.96-.546C8.959 7 9 7.686 9 8v3H8V8c-.001-.463-.05-1-1-1s-.95.766-1 1c-.033.156-.033 1.156 0 3H5V6h1v.3c.265-.2.632-.3 1.1-.3.844 0 1.184.194 1.499.6.059-.098.513-.6 1.383-.6 1.069 0 1.595.523 1.834 1.095a2.495 2.495 0 0 0-.874.45z"/></g></svg>
